X: 14613
T: Gan Ainm
R: barndance
M: 4/4
K: Gmajor
|:(3edc|B2 d>B c>BA>G|D2 G2 G2 (3GAB|c2 (3Bcd e>dc>B|c>BA>G F>Dd>c|
B>G (3dcB c>A (3BAG|D2 G>F G2 A>B|c>Bc>d (3efe d>c|(3BcB G2 G2:|
|:(3cBA|(3GAG D>G (3BcB G>B|(3ded B>d g2 d>g|f2 e2 c>AF>A|e>^de>c B>A (3cBA|
G2 G2 B>A (3GAB|d>G (3Bcd g>dB>g|(3fgf e2 c>A (3FGA|G2 F2 G2:|

